SVG_Azure_Grouped/Dynamics 365/Application Customer Service.svg

<?xml version="1.0" encoding="UTF-8" standalone="no"?>
<!-- Generated by Microsoft Visio, SVG Export Application Customer Service.svg Page-1 -->

<svg
   xmlns:dc="http://purl.org/dc/elements/1.1/"
   xmlns:cc="http://creativecommons.org/ns#"
   xmlns:rdf="http://www.w3.org/1999/02/22-rdf-syntax-ns#"
   xmlns:svg="http://www.w3.org/2000/svg"
   xmlns="http://www.w3.org/2000/svg"
   xmlns:sodipodi="http://sodipodi.sourceforge.net/DTD/sodipodi-0.dtd"
   xmlns:inkscape="http://www.inkscape.org/namespaces/inkscape"
   width="0.78745699in"
   height="0.70485169in"
   viewBox="0 0 56.696901 50.749241"
   xml:space="preserve"
   class="st6"
   version="1.1"
   id="svg58"
   sodipodi:docname="Application Customer Service.svg"
   style="font-size:12px;overflow:visible;color-interpolation-filters:sRGB;fill:none;fill-rule:evenodd;stroke-linecap:square;stroke-miterlimit:3"
   inkscape:version="0.92.5 (2060ec1f9f, 2020-04-08)"><metadata
   id="metadata62"><rdf:RDF><cc:Work
       rdf:about=""><dc:format>image/svg+xml</dc:format><dc:type
         rdf:resource="http://purl.org/dc/dcmitype/StillImage" /></cc:Work></rdf:RDF></metadata><sodipodi:namedview
   pagecolor="#ffffff"
   bordercolor="#666666"
   borderopacity="1"
   objecttolerance="10"
   gridtolerance="10"
   guidetolerance="10"
   inkscape:pageopacity="0"
   inkscape:pageshadow="2"
   inkscape:window-width="640"
   inkscape:window-height="480"
   id="namedview60"
   showgrid="false"
   inkscape:zoom="1.963572"
   inkscape:cx="37.795281"
   inkscape:cy="14.374601"
   inkscape:window-x="0"
   inkscape:window-y="0"
   inkscape:window-maximized="0"
   inkscape:current-layer="svg58" />
	<style
   type="text/css"
   id="style2">
	<![CDATA[
		.st1 {fill:url(#grad0-7);stroke:none;stroke-linecap:butt;stroke-width:0.75}
		.st2 {fill:#000000;fill-opacity:0.32;stroke:none;stroke-linecap:butt;stroke-width:0.75}
		.st3 {fill:#000000;fill-opacity:0.24;stroke:none;stroke-linecap:butt;stroke-width:0.75}
		.st4 {fill:url(#grad0-15);stroke:none;stroke-linecap:butt;stroke-width:0.75}
		.st5 {fill:url(#grad0-19);stroke:none;stroke-linecap:butt;stroke-width:0.75}
		.st6 {fill:none;fill-rule:evenodd;font-size:12px;overflow:visible;stroke-linecap:square;stroke-miterlimit:3}
	]]>
	</style>

	<defs
   id="Patterns_And_Gradients">
		<linearGradient
   id="grad0-7"
   x1="0"
   y1="38.649273"
   x2="47.537168"
   y2="38.649273"
   gradientTransform="scale(0.95903904,1.0427104)"
   gradientUnits="userSpaceOnUse">
			<stop
   offset="0"
   stop-color="#8661c5"
   stop-opacity="1"
   id="stop4" />
			<stop
   offset="1"
   stop-color="#5c428b"
   stop-opacity="1"
   id="stop6" />
		</linearGradient>
		<linearGradient
   id="grad0-15"
   x1="0"
   y1="38.649273"
   x2="47.537168"
   y2="38.649273"
   gradientTransform="scale(0.95903904,1.0427104)"
   gradientUnits="userSpaceOnUse">
			<stop
   offset="0"
   stop-color="#ebc7ff"
   stop-opacity="1"
   id="stop9" />
			<stop
   offset="0.495"
   stop-color="#e4b4ff"
   stop-opacity="1"
   id="stop11" />
		</linearGradient>
		<linearGradient
   id="grad0-19"
   x1="0"
   y1="48.837118"
   x2="36.367109"
   y2="48.837118"
   gradientTransform="scale(0.94810946,1.0547305)"
   gradientUnits="userSpaceOnUse">
			<stop
   offset="0"
   stop-color="#cd9ef0"
   stop-opacity="1"
   id="stop14" />
			<stop
   offset="0.895"
   stop-color="#9f75d3"
   stop-opacity="1"
   id="stop16" />
		</linearGradient>
	</defs>
	<g
   id="g56"
   transform="translate(-5.66929,-5.1025495)">
		<title
   id="title20">Page-1</title>
		<g
   id="group21365-1"
   transform="translate(5.66929,-34.0157)">
			<title
   id="title22">Application Customer Service.21365</title>
			<g
   id="group21366-2">
				<title
   id="title24">Sheet.21366</title>
				<g
   id="group21367-3">
					<title
   id="title26">Sheet.21367</title>
					<g
   id="shape21368-4"
   transform="translate(11.1069,-1.18182)">
						<title
   id="title28">Sheet.21368</title>
						<path
   d="m 28.17,40.3 h 15.05 c 1.31,0 2.37,1.06 2.37,2.36 v 14.7 c 0,0.57 -0.21,1.11 -0.58,1.54 L 19.03,89.05 c -0.94,1.09 -2.64,1.09 -3.58,0 L 0,71.12 26.39,41.1 c 0.45,-0.51 1.1,-0.8 1.78,-0.8 z"
   class="st1"
   id="path30"
   inkscape:connector-curvature="0"
   style="fill:url(#grad0-7);stroke:none;stroke-width:0.75;stroke-linecap:butt" />
					</g>
					<g
   id="shape21369-8">
						<title
   id="title33">Sheet.21369</title>
						<path
   d="M 17.42,40.3 H 2.36 C 1.06,40.3 0,41.35 0,42.66 v 14.7 c 0,0.56 0.2,1.11 0.57,1.54 l 25.99,30.15 c 0.94,1.09 2.63,1.09 3.58,0 L 45.59,71.12 19.19,41.1 C 18.74,40.59 18.1,40.3 17.42,40.3 Z"
   class="st2"
   id="path35"
   inkscape:connector-curvature="0"
   style="fill:#000000;fill-opacity:0.31999996;stroke:none;stroke-width:0.75;stroke-linecap:butt" />
					</g>
					<g
   id="shape21370-10"
   transform="translate(0,-0.955826)">
						<title
   id="title38">Sheet.21370</title>
						<path
   d="M 17.42,40.3 H 2.36 C 1.06,40.3 0,41.35 0,42.66 v 14.7 c 0,0.56 0.2,1.11 0.57,1.54 l 25.99,30.15 c 0.94,1.09 2.63,1.09 3.58,0 L 45.59,71.12 19.19,41.1 C 18.74,40.59 18.1,40.3 17.42,40.3 Z"
   class="st3"
   id="path40"
   inkscape:connector-curvature="0"
   style="fill:#000000;fill-opacity:0.23999999;stroke:none;stroke-width:0.75;stroke-linecap:butt" />
					</g>
					<g
   id="shape21371-12"
   transform="translate(0,-1.18011)">
						<title
   id="title43">Sheet.21371</title>
						<path
   d="M 17.42,40.3 H 2.36 C 1.06,40.3 0,41.35 0,42.66 v 14.7 c 0,0.56 0.2,1.11 0.57,1.54 l 25.99,30.15 c 0.94,1.09 2.63,1.09 3.58,0 L 45.59,71.12 19.19,41.1 C 18.74,40.59 18.1,40.3 17.42,40.3 Z"
   class="st4"
   id="path45"
   inkscape:connector-curvature="0"
   style="fill:url(#grad0-15);stroke:none;stroke-width:0.75;stroke-linecap:butt" />
					</g>
					<g
   id="shape21372-16"
   transform="translate(11.1069,-1.18182)">
						<title
   id="title48">Sheet.21372</title>
						<path
   d="M 17.24,51.51 0,71.12 15.45,89.05 c 0.94,1.09 2.64,1.09 3.58,0 l 6.25,-7.25 9.2,-10.68 z"
   class="st5"
   id="path50"
   inkscape:connector-curvature="0"
   style="fill:url(#grad0-19);stroke:none;stroke-width:0.75;stroke-linecap:butt" />
					</g>
				</g>
			</g>
		</g>
	</g>
</svg>

<?xml version="1.0" encoding="UTF-8" standalone="no"?>
<!DOCTYPE svg PUBLIC "-//W3C//DTD SVG 1.1//EN" "http://www.w3.org/Graphics/SVG/1.1/DTD/svg11.dtd">
<!-- Generated by Microsoft Visio, SVG Export Application Customer Service.svg Page-1 -->
<svg xmlns="http://www.w3.org/2000/svg" xmlns:xlink="http://www.w3.org/1999/xlink" xmlns:ev="http://www.w3.org/2001/xml-events"
		width="0.944882in" height="1.25197in" viewBox="0 0 68.0315 90.1417" xml:space="preserve" color-interpolation-filters="sRGB"
		class="st6">
	<style type="text/css">
	<![CDATA[
		.st1 {fill:url(#grad0-7);stroke:none;stroke-linecap:butt;stroke-width:0.75}
		.st2 {fill:#000000;fill-opacity:0.32;stroke:none;stroke-linecap:butt;stroke-width:0.75}
		.st3 {fill:#000000;fill-opacity:0.24;stroke:none;stroke-linecap:butt;stroke-width:0.75}
		.st4 {fill:url(#grad0-15);stroke:none;stroke-linecap:butt;stroke-width:0.75}
		.st5 {fill:url(#grad0-19);stroke:none;stroke-linecap:butt;stroke-width:0.75}
		.st6 {fill:none;fill-rule:evenodd;font-size:12px;overflow:visible;stroke-linecap:square;stroke-miterlimit:3}
	]]>
	</style>

	<defs id="Patterns_And_Gradients">
		<linearGradient id="grad0-7" x1="0" y1="0" x2="1" y2="0" gradientTransform="rotate(53.513431243548 0.5 0.5)">
			<stop offset="0" stop-color="#8661c5" stop-opacity="1"/>
			<stop offset="1" stop-color="#5c428b" stop-opacity="1"/>
		</linearGradient>
		<linearGradient id="grad0-15" x1="0" y1="0" x2="1" y2="0" gradientTransform="rotate(46.381788152623 0.5 0.5)">
			<stop offset="0" stop-color="#ebc7ff" stop-opacity="1"/>
			<stop offset="0.495" stop-color="#e4b4ff" stop-opacity="1"/>
		</linearGradient>
		<linearGradient id="grad0-19" x1="0" y1="0" x2="1" y2="0" gradientTransform="rotate(68.207447810462 0.5 0.5)">
			<stop offset="0" stop-color="#cd9ef0" stop-opacity="1"/>
			<stop offset="0.895" stop-color="#9f75d3" stop-opacity="1"/>
		</linearGradient>
	</defs>
	<g>
		<title>Page-1</title>
		<g id="group20890-1" transform="translate(5.66929,-34.0157)">
			<title>Application Customer Service.20890</title>
			<g id="group20891-2">
				<title>Sheet.20891</title>
				<g id="group20892-3">
					<title>Sheet.20892</title>
					<g id="shape20893-4" transform="translate(11.1069,-1.18182)">
						<title>Sheet.20893</title>
						<path d="M28.17 40.3 L43.22 40.3 C44.53 40.3 45.59 41.36 45.59 42.66 L45.59 57.36 C45.59 57.93 45.38 58.47
									 45.01 58.9 L19.03 89.05 C18.09 90.14 16.39 90.14 15.45 89.05 L0 71.12 L26.39 41.1 C26.84 40.59
									 27.49 40.3 28.17 40.3 Z" class="st1"/>
					</g>
					<g id="shape20894-8">
						<title>Sheet.20894</title>
						<path d="M17.42 40.3 L2.36 40.3 C1.06 40.3 0 41.35 0 42.66 L0 57.36 C0 57.92 0.2 58.47 0.57 58.9 L26.56 89.05
									 C27.5 90.14 29.19 90.14 30.14 89.05 L45.59 71.12 L19.19 41.1 C18.74 40.59 18.1 40.3 17.42 40.3
									 Z" class="st2"/>
					</g>
					<g id="shape20895-10" transform="translate(2.8777E-13,-0.955826)">
						<title>Sheet.20895</title>
						<path d="M17.42 40.3 L2.36 40.3 C1.06 40.3 0 41.35 0 42.66 L0 57.36 C0 57.92 0.2 58.47 0.57 58.9 L26.56 89.05
									 C27.5 90.14 29.19 90.14 30.14 89.05 L45.59 71.12 L19.19 41.1 C18.74 40.59 18.1 40.3 17.42 40.3
									 Z" class="st3"/>
					</g>
					<g id="shape20896-12" transform="translate(2.8777E-13,-1.18011)">
						<title>Sheet.20896</title>
						<path d="M17.42 40.3 L2.36 40.3 C1.06 40.3 0 41.35 0 42.66 L0 57.36 C0 57.92 0.2 58.47 0.57 58.9 L26.56 89.05
									 C27.5 90.14 29.19 90.14 30.14 89.05 L45.59 71.12 L19.19 41.1 C18.74 40.59 18.1 40.3 17.42 40.3
									 Z" class="st4"/>
					</g>
					<g id="shape20897-16" transform="translate(11.1069,-1.18182)">
						<title>Sheet.20897</title>
						<path d="M17.24 51.51 L0 71.12 L15.45 89.05 C16.39 90.14 18.09 90.14 19.03 89.05 L25.28 81.8 L34.48 71.12
									 L17.24 51.51 Z" class="st5"/>
					</g>
				</g>
			</g>
		</g>
	</g>
</svg>
